X: 031	2
T: Pig Town Fling
S: Viola Ruth "Pioneer Western Folk Tunes" 1948 p.3 #1
R: reel
Z: 2019 John Chambers <jc:trillian.mit.edu>
N: Both parts have final repeat but no initial repeat; fixed with added initial repeats.
M: 2/4
L: 1/16
K: G
V: 1 name=2
|: G2ge d2ed | B2ge dcBA | G2ge d2ed | BGAF "^Fine"[G2B,2] :|
|: Be2e e3g | fgaf gfed | Be2e e3g | fgaf "^D.C."g4 :|
